Yaru++/actions/16/mail-mark-notjunk.svg

<svg enable-background="new" height="16" width="16" xmlns="http://www.w3.org/2000/svg"><g fill="#da1636" transform="matrix(1.0714286 0 0 1.0714286 -434.50023 -108.78572)"><path d="m410.21895 102-.3125.28125-3.625 3.62501-.28125.31249v.40625 4.75.40625l.28125.31251 3.625 3.62499.3125.28125h.40625 4.75.40625l.31249-.28125 3.62501-3.62499.28125-.31251v-.40625-4.75-.40625l-.28125-.31249-3.62501-3.62501-.31249-.28125h-.40625-4.75zm1.78125 3h2v3l-.25001 2h-1.46874l-.28125-2zm.99999 5.75c.69037 0 1.25001.55964 1.25001 1.25001 0 .69035-.55964 1.24999-1.25001 1.24999-.69035 0-1.24999-.55964-1.24999-1.24999 0-.69037.55964-1.25001 1.24999-1.25001z" fill="#da1636"/><path d="m5.0195312.5-.3339843.30078125-3.88476565 3.88476565-.30078125.3339843v.4355469.064453l.30078125-.3339842 3.88476565-3.8847657.3339843-.3007812h.4355469 5.0898439.435547l.333984.3007812 3.884766 3.8847657.300781.3339843v-.0644531-.4355469l-.300781-.3339843-3.884766-3.88476565-.333984-.30078125h-.435547-5.0898439z" fill="#fff" opacity=".3" stroke-width="1.071428" transform="matrix(.93333331 0 0 .93333331 405.53354 101.53334)"/><path d="m415.78196 116 .31171-.28073 3.62579-3.62578.28072-.31172v-.40651-.0601l-.28072.31171-3.62579 3.62579-.31171.28072h-.40652-4.75052-.40651l-.31171-.28072-3.62579-3.62579-.28073-.31171v.0601.40651l.28073.31172 3.62579 3.62578.31171.28073h.40651 4.75052z" fill="#0e0000" opacity=".2"/></g></svg>

<?xml version="1.0" encoding="UTF-8" standalone="no"?>
<svg
   xmlns:dc="http://purl.org/dc/elements/1.1/"
   xmlns:cc="http://creativecommons.org/ns#"
   xmlns:rdf="http://www.w3.org/1999/02/22-rdf-syntax-ns#"
   xmlns:svg="http://www.w3.org/2000/svg"
   xmlns="http://www.w3.org/2000/svg"
   xmlns:sodipodi="http://sodipodi.sourceforge.net/DTD/sodipodi-0.dtd"
   xmlns:inkscape="http://www.inkscape.org/namespaces/inkscape"
   width="16"
   height="16"
   version="1.1"
   style="enable-background:new"
   id="svg6"
   sodipodi:docname="spam.svg"
   inkscape:version="0.92.4 (5da689c313, 2019-01-14)">
  <metadata
     id="metadata12">
    <rdf:RDF>
      <cc:Work
         rdf:about="">
        <dc:format>image/svg+xml</dc:format>
        <dc:type
           rdf:resource="http://purl.org/dc/dcmitype/StillImage" />
      </cc:Work>
    </rdf:RDF>
  </metadata>
  <defs
     id="defs10" />
  <sodipodi:namedview
     pagecolor="#ffffff"
     bordercolor="#666666"
     borderopacity="1"
     objecttolerance="10"
     gridtolerance="10"
     guidetolerance="10"
     inkscape:pageopacity="0"
     inkscape:pageshadow="2"
     inkscape:window-width="1920"
     inkscape:window-height="1016"
     id="namedview8"
     showgrid="false"
     inkscape:zoom="43.785724"
     inkscape:cx="8.0000014"
     inkscape:cy="7.9999972"
     inkscape:window-x="0"
     inkscape:window-y="27"
     inkscape:window-maximized="1"
     inkscape:current-layer="g4" />
  <g
     transform="matrix(1.0714286,0,0,1.0714286,-434.50023,-108.78572)"
     style="fill:#da1636;fill-opacity:1"
     id="g4">
    <path
       d="m 410.21895,102 -0.3125,0.28125 -3.625,3.62501 -0.28125,0.31249 v 0.40625 4.75 0.40625 l 0.28125,0.31251 3.625,3.62499 0.3125,0.28125 h 0.40625 4.75 0.40625 l 0.31249,-0.28125 3.62501,-3.62499 0.28125,-0.31251 v -0.40625 -4.75 -0.40625 l -0.28125,-0.31249 -3.62501,-3.62501 L 415.78145,102 h -0.40625 -4.75 z m 1.78125,3 h 2 v 3 l -0.25001,2 h -1.46874 l -0.28125,-2 z m 0.99999,5.75 c 0.69037,0 1.25001,0.55964 1.25001,1.25001 0,0.69035 -0.55964,1.24999 -1.25001,1.24999 -0.69035,0 -1.24999,-0.55964 -1.24999,-1.24999 0,-0.69037 0.55964,-1.25001 1.24999,-1.25001 z"
       style="fill:#da1636;fill-opacity:1;stroke-width:0.99999976"
       id="path2"
       inkscape:connector-curvature="0" />
    <path
       style="opacity:0.3;fill:#ffffff;fill-opacity:1;stroke-width:1.0714283"
       d="M 5.0195312,0.5 4.6855469,0.80078125 0.80078125,4.6855469 0.5,5.0195312 v 0.4355469 0.064453 L 0.80078125,5.1855469 4.6855469,1.3007812 5.0195312,1 h 0.4355469 5.0898439 0.435547 L 11.314453,1.3007812 15.199219,5.1855469 15.5,5.5195312 V 5.4550781 5.0195312 L 15.199219,4.6855469 11.314453,0.80078125 10.980469,0.5 H 10.544922 5.4550781 Z"
       transform="matrix(0.93333331,0,0,0.93333331,405.53354,101.53334)"
       id="path815"
       inkscape:connector-curvature="0"
       sodipodi:nodetypes="ccccccccccccccccccccccc" />
    <path
       sodipodi:nodetypes="ccccccccccccccccccccccc"
       inkscape:connector-curvature="0"
       id="path820"
       d="m 415.78196,116 0.31171,-0.28073 3.62579,-3.62578 0.28072,-0.31172 v -0.40651 -0.0601 l -0.28072,0.31171 -3.62579,3.62579 -0.31171,0.28072 h -0.40652 -4.75052 -0.40651 l -0.31171,-0.28072 -3.62579,-3.62579 -0.28073,-0.31171 v 0.0601 0.40651 l 0.28073,0.31172 3.62579,3.62578 0.31171,0.28073 h 0.40651 4.75052 z"
       style="opacity:0.2;fill:#0e0000;fill-opacity:1;stroke-width:0.9999997" />
  </g>
</svg>
